X: 2350
T: BELLS OF ROCKLAND
R: Hornpipe.
%R: hornpipe, reel
B: James Kerr "Merry Melodies" v.2 p.39 #350
Z: 2016 John Chambers <jc:trillian.mit.edu>
M: C
L: 1/8
K: D
|:   (3DDD D2  F>ED>F | (3AAA A2 c>BA>c |\
[1,3 (3ddd d2  f>edf | edcB AGFE :|\
[2,4 (3ddd d>f e>dce |
d2d2 d2z2 ::\
{f}e>^def g>ecA | {g}f>efg a>fdA |\
bgdb afdb |[1,3 ageb afdf :|[2,4 agec d2z2 :|
